X: 27467
T: Molly Morrissey's
R: polka
M: 2/4
K: Adorian
|:eA ed/c/|BG Bd|eA e/f/e/d/|BG A2|
eA ed/c/|BG Bd|eg e/g/e/d/|BG A2:|
|:ea ag/a/|bg ed|ea ag/a/|bg e2|
ea ag/a/|bg ed|eg e/g/e/d/|BG A2:|

